!!!!SEGMENT: Snf0230-Non_moriar_sed_vivam.krn
!!!id: Snf0230
!!!AGN: Motet
!!!SCT: Edwards, Gasch, Tröster (2022)
!!!voices: 4
!!!COM: Ludwig Senfl
!!!OTL: Non moriar sed vivam
**kern	**text	**kern	**text	**kern	**text	**kern	**text
*part4	*part4	*part3	*part3	*part2	*part2	*part1	*part1
*staff4	*staff4	*staff3	*staff3	*staff2	*staff2	*staff1	*staff1
*I"Bassus	*	*I"Tenor	*	*I"Altus	*	*I"Superius	*
*I'B	*	*I'T	*	*I'A	*	*I'S	*
*clefF4	*	*clefGv2	*	*clefGv2	*	*clefG2	*
*	*	*	*	*	*	*	*
*k[]	*	*k[]	*	*k[]	*	*k[]	*
*	*	*	*	*	*	*	*
*M2/1	*	*M2/1	*	*M2/1	*	*M2/1	*
*met(C|)	*	*met(C|)	*	*met(C|)	*	*met(C|)	*
!!section: Prima pars: Non moriar sed vivam
!!!OMD: Prima pars: Non moriar sed vivam
=1	=1	=1	=1	=1	=1	=1	=1
0r	.	0r	.	0d	Non	0r	.
=2	=2	=2	=2	=2	=2	=2	=2
0r	.	0r	.	1e	.	0r	.
.	.	.	.	1d	.	.	.
=3	=3	=3	=3	=3	=3	=3	=3
0r	.	0G	Non	1d	mo-	0r	.
.	.	.	.	2e	.	.	.
.	.	.	.	[2g	.	.	.
=4	=4	=4	=4	=4	=4	=4	=4
0r	.	1A	.	2g]	.	0r	.
.	.	.	.	2f#i	-ri-	.	.
.	.	1G	.	2.g	-ar,	.	.
.	.	.	.	4fny	.	.	.
=5	=5	=5	=5	=5	=5	=5	=5
0C	Non	1G	mo-	4e	.	0r	.
.	.	.	.	4d	.	.	.
.	.	.	.	2e	.	.	.
.	.	2A	.	2c	.	.	.
.	.	[2c	.	2e	non	.	.
=6	=6	=6	=6	=6	=6	=6	=6
1D	.	2c]	.	2f	mo-	0r	.
.	.	2B	-ri-	2f	-ri-	.	.
1C	.	1c	-ar,	1e	-ar	.	.
=7	=7	=7	=7	=7	=7	=7	=7
1C	mo-	2r	.	1g	sed	0r	.
.	.	2e	non	.	.	.	.
2D	.	2d	mo-	1f	vi-	.	.
[2F	.	[2c	.	.	.	.	.
=8	=8	=8	=8	=8	=8	=8	=8
2F]	.	4c]	.	1g	.	0r	.
.	.	4d	.	.	.	.	.
2E	-ri-	2e	.	.	.	.	.
1F	-ar	2c	.	1f	-vam,	.	.
.	.	[2d	.	.	.	.	.
=9	=9	=9	=9	=9	=9	=9	=9
1G	.	4d]	.	2r	.	0g	Non
.	.	4c	.	.	.	.	.
.	.	4B	.	2d	non	.	.
.	.	4A	.	.	.	.	.
1r	.	2B	.	2d	mo-	.	.
.	.	2B	-ri-	2d	-ri-	.	.
=10	=10	=10	=10	=10	=10	=10	=10
0r	.	1A	-ar,	2e	-ar	1a	.
.	.	.	.	2e	sed	.	.
.	.	2r	.	2.e	vi-	1g	.
.	.	2c	non	.	.	.	.
.	.	.	.	8dL	.	.	.
.	.	.	.	8cJ	.	.	.
=11	=11	=11	=11	=11	=11	=11	=11
1G	sed	2d	mo-	1B	.	1g	mo-
.	.	2e	.	.	.	.	.
1F	vi-	1f	-ri-	2A	-vam,	2a	.
.	.	.	.	2a	sed	[2cc	.
=12	=12	=12	=12	=12	=12	=12	=12
1G	.	1d	-ar,	1g	vi-	2cc]	.
.	.	.	.	.	.	2b	-ri-
1F	-vam,	2A	non	2c	-vam,	1cc	-ar
.	.	2A	mo-	2f	sed	.	.
=13	=13	=13	=13	=13	=13	=13	=13
2r	.	2B	.	4d	vi-	1dd	.
.	.	.	.	4e	.	.	.
2D	sed	2A	-ri-	4f	.	.	.
.	.	.	.	4g	.	.	.
4D	vi-	1A	-ar	2a	.	1dd	sed
4E	.	.	.	.	.	.	.
4F	.	.	.	[2f	.	.	.
4G	.	.	.	.	.	.	.
=14	=14	=14	=14	=14	=14	=14	=14
1A	.	1r	.	2f]	.	1cc	vi-
.	.	.	.	2e	.	.	.
1D	-vam,	2r	.	1f	.	1dd	.
.	.	2A	sed	.	.	.	.
=15	=15	=15	=15	=15	=15	=15	=15
2r	.	4A	vi-	1e	-vam,	0cc	-vam
.	.	4B	.	.	.	.	.
2AA	sed	4c	.	.	.	.	.
.	.	4d	.	.	.	.	.
4AA	vi-	2e	.	2A	sed	.	.
4BB	.	.	.	.	.	.	.
4C	.	2c	.	[2a	vi-	.	.
4D	.	.	.	.	.	.	.
=16	=16	=16	=16	=16	=16	=16	=16
1E	.	1B	.	2a]	.	1r	.
.	.	.	.	2g#i	.	.	.
1AA	-vam,	1A	-vam,	4a	.	1cc	et
.	.	.	.	4gny	.	.	.
.	.	.	.	4f	.	.	.
.	.	.	.	4e	.	.	.
=17	=17	=17	=17	=17	=17	=17	=17
2r	.	2r	.	2f	.	1a	.
2D	sed	2A	sed	2d	.	.	.
4D	vi-	1d	vi-	1f	.	1a	nar-
4E	.	.	.	.	.	.	.
4F	.	.	.	.	.	.	.
4G	.	.	.	.	.	.	.
=18	=18	=18	=18	=18	=18	=18	=18
1A	.	2c	-vam	1e	-vam	1cc	.
.	.	1c	et	.	.	.	.
2AA	-vam	.	.	2r	.	1cc	-ra-
[2C	et	2c	nar-	[2e	et	.	.
=19	=19	=19	=19	=19	=19	=19	=19
2C]	.	2c	-ra-	2e]	.	1cc	-bo
2C	nar-	2c	-bo	2e	nar-	.	.
2C	-ra-	2.G	o-	2e	-ra-	1cc	o-
2C	-bo	.	.	2e	-bo	.	.
.	.	4A	.	.	.	.	.
=20	=20	=20	=20	=20	=20	=20	=20
2G	o-	4B	.	2d	o-	1b	.
.	.	4c	.	.	.	.	.
2G	-pe-	4d	.	2d	-pe-	.	.
.	.	4B	.	.	.	.	.
1C	-ra	2c	-pe-	1e	-ra	1g	-pe-
.	.	2G	-ra	.	.	.	.
=21	=21	=21	=21	=21	=21	=21	=21
2r	.	2d	.	2f	.	2a	-ra
2.C	Do-	1.e	Do-	1.g	Do-	1cc	.
4D	.	.	.	.	.	.	.
2E	.	.	.	.	.	2b	.
=22	=22	=22	=22	=22	=22	=22	=22
1F	.	2c	.	2f	.	1a	Do-
.	.	2.A	.	2.c	.	.	.
1F	-mi-	.	.	.	.	1a	-mi-
.	.	4G	.	4B	.	.	.
.	.	4A	.	4c	.	.	.
.	.	4B	.	4d	.	.	.
=23	=23	=23	=23	=23	=23	=23	=23
1C	-ni,	2c	.	2.e	.	[0g	-ni.
.	.	2.G	.	.	.	.	.
.	.	.	.	4c	.	.	.
1r	.	.	.	1d	.	.	.
.	.	4A	.	.	.	.	.
.	.	2B	.	.	.	.	.
=24	=24	=24	=24	=24	=24	=24	=24
0r	.	1c	.	1e	.	0g]	.
.	.	1c	-mi-	1e	-mi-	.	.
=25	=25	=25	=25	=25	=25	=25	=25
2r	.	2G	-ni,	1d	-ni.	2r	.
2.GG	Do-	2.B	Do-	.	.	2.dd	Non
.	.	.	.	1r	.	.	.
4AA	.	4A	.	.	.	4cc	.
2BB	.	4G	.	.	.	4b	.
.	.	4F	.	.	.	4a	.
=26	=26	=26	=26	=26	=26	=26	=26
1C	.	2E	.	0c	Non	4g	.
.	.	.	.	.	.	4f	.
.	.	2C	-mi-	.	.	4e	.
.	.	.	.	.	.	4d	.
1C	-mi-	1G	-ni.	.	.	4e	.
.	.	.	.	.	.	4c	.
.	.	.	.	.	.	[2cc	mo-
=27	=27	=27	=27	=27	=27	=27	=27
1GG	-ni,	2r	.	1d	.	2cc]	.
.	.	2G	Non	.	.	2b	.
2r	.	2A	.	1c	.	2cc	.
[2C	Do-	2G	.	.	.	2cc	-ri-
=28	=28	=28	=28	=28	=28	=28	=28
4C]	.	1G	mo-	1c	mo-	1g	-ar,
4D	.	.	.	.	.	.	.
2E	.	.	.	.	.	.	.
2F	.	2A	-ri-	2d	.	1r	.
2F	-mi-	[2c	-ar	[2f	.	.	.
=29	=29	=29	=29	=29	=29	=29	=29
2C	-ni.	2c]	.	2f]	.	1g	non
2G	Non	2B	sed	2e	-ri-	.	.
2F	mo-	1c	vi-	1f	-ar	2a	mo-
2A	-ri-	.	.	.	.	[2cc	.
=30	=30	=30	=30	=30	=30	=30	=30
1G	-ar	1d	.	1g	.	2cc]	.
.	.	.	.	.	.	2b	-ri-
1r	.	1c	-vam,	1g	sed	2cc	-ar
.	.	.	.	.	.	2cc	sed
=31	=31	=31	=31	=31	=31	=31	=31
2r	.	2r	.	1f	vi-	1a	vi-
2D	sed	2d	sed	.	.	.	.
1G	vi-	4B	vi-	1g	.	1b	.
.	.	4A	.	.	.	.	.
.	.	4B	.	.	.	.	.
.	.	4c	.	.	.	.	.
=32	=32	=32	=32	=32	=32	=32	=32
1D	-vam,	2d	.	0f	-vam	1a	-vam,
.	.	2A	-vam,	.	.	.	.
2r	.	2r	.	.	.	2r	.
2D	sed	2d	sed	.	.	2a	sed
=33	=33	=33	=33	=33	=33	=33	=33
1G	vi-	4B	vi-	1r	.	1b	vi-
.	.	4A	.	.	.	.	.
.	.	4B	.	.	.	.	.
.	.	4c	.	.	.	.	.
1D	-vam,	2d	.	1f	et	1a	-vam,
.	.	2A	-vam,	.	.	.	.
=34	=34	=34	=34	=34	=34	=34	=34
2r	.	2r	.	1d	.	2r	.
2D	sed	2d	sed	.	.	2a	sed
1G	vi-	4B	vi-	1d	nar-	1b	vi-
.	.	4A	.	.	.	.	.
.	.	4B	.	.	.	.	.
.	.	4c	.	.	.	.	.
=35	=35	=35	=35	=35	=35	=35	=35
2D	-vam	2d	.	1f	.	1a	-vam
1F	et	2A	-vam	.	.	.	.
.	.	2r	.	1f	-ra-	2r	.
2F	nar-	[2c	et	.	.	[2a	et
=36	=36	=36	=36	=36	=36	=36	=36
2F	-ra-	2c]	.	1f	-bo	2a]	.
2F	-bo	2c	nar-	.	.	2a	nar-
2F	o-	2c	-ra-	1f	o-	2a	-ra-
2F	-pe-	2c	-bo	.	.	2a	-bo
=37	=37	=37	=37	=37	=37	=37	=37
1C	-ra	2c	o-	1e	.	2g	o-
.	.	2c	-pe-	.	.	2g	-pe-
2.F	Do-	1A	-ra	1c	-pe-	1a	-ra
4E	.	.	.	.	.	.	.
=38	=38	=38	=38	=38	=38	=38	=38
4D	.	2r	.	2d	-ra	2r	.
4C	.	.	.	.	.	.	.
2D	.	2A	Do-	1f	.	2.dd	Do-
2BB	.	4B-X	.	.	.	.	.
.	.	4A	.	.	.	4cc	.
2C	-mi-	4G	.	2e	.	[2cc	.
.	.	4F	.	.	.	.	.
=39	=39	=39	=39	=39	=39	=39	=39
1GG	-ni,	2G	.	1d	Do-	2cc]	.
.	.	2G	-mi-	.	.	4b	.
.	.	.	.	.	.	4a	.
2r	.	1G	-ni,	1d	-mi-	1b	.
2G	Do-	.	.	.	.	.	.
=40	=40	=40	=40	=40	=40	=40	=40
2.A	.	1r	.	[0c	-ni,	2.cc	.
4G	.	.	.	.	.	4b	.
4F	.	2r	.	.	.	4a	.
4E	.	.	.	.	.	4g	.
[2F	.	2A	Do-	.	.	[2a	.
=41	=41	=41	=41	=41	=41	=41	=41
2F]	.	2F	.	0c]	.	4a]	.
.	.	.	.	.	.	4g	.
2E	.	2G	.	.	.	1g	.
2F	.	2A	.	.	.	.	.
2F	-mi-	2A	-mi-	.	.	2f	.
=42	=42	=42	=42	=42	=42	=42	=42
1C	-ni,	1e	-ni,	2r	.	2g	.
.	.	.	.	1c	Do-	4f	.
.	.	.	.	.	.	4e	.
2r	.	2r	.	.	.	2d	.
[2C	Do-	2E	Do-	2G	-mi-	[2e	.
=43	=43	=43	=43	=43	=43	=43	=43
2C]	.	2C	.	[0G	-ni.	2e]	.
2BB	.	2D	.	.	.	1d	.
2C	.	2E	.	.	.	.	.
2C	-mi-	2E	-mi-	.	.	2c	-mi-
=44	=44	=44	=44	=44	=44	=44	=44
[0GG	-ni.	0B	-ni,	0G]	.	1d	-ni.
.	.	.	.	.	.	1r	.
=45	=45	=45	=45	=45	=45	=45	=45
1GG]	.	2r	.	2r	.	0d	Non
.	.	1B	Do-	2.G	Non	.	.
2r	.	.	.	.	.	.	.
.	.	.	.	4A	.	.	.
2GG	Non	2G	-mi-	2B	.	.	.
=46	=46	=46	=46	=46	=46	=46	=46
2C	mo-	1G	-ni.	2c	mo-	1e	.
2C	-ri-	.	.	2c	-ri-	.	.
1GG	-ar,	1r	.	1B	-ar	1d	.
=47	=47	=47	=47	=47	=47	=47	=47
2r	.	0G	Non	2r	.	1d	mo-
2GG	non	.	.	2B	sed	.	.
2C	mo-	.	.	1c	vi-	2e	.
2E	-ri-	.	.	.	.	[2g	.
=48	=48	=48	=48	=48	=48	=48	=48
2D	-ar,	1A	.	1d	.	2g]	.
2D	non	.	.	.	.	2f#i	-ri-
2GG	mo-	1G	.	1d	-vam,	[1g	-ar,
2GG	-ri-	.	.	.	.	.	.
=49	=49	=49	=49	=49	=49	=49	=49
2C	-ar	1G	mo-	2e	non	1g]	.
2BB	sed	.	.	1g	mo-	.	.
1AA	vi-	2A	.	.	.	1r	.
.	.	[2c	.	2f#i	-ri-	.	.
=50	=50	=50	=50	=50	=50	=50	=50
2GG	-vam,	2c]	.	1g	-ar	1d	non
2G	sed	2B	-ri-	.	.	.	.
2C	vi-	1c	-ar	2r	.	2e	mo-
2E	.	.	.	2G	sed	[2g	.
=51	=51	=51	=51	=51	=51	=51	=51
1D	-vam,	1d	.	1A	vi-	2g]	.
.	.	.	.	.	.	2f#i	-ri-
2r	.	1d	sed	2G	-vam,	2g	-ar,
2G	sed	.	.	2g	sed	2b	non
=52	=52	=52	=52	=52	=52	=52	=52
1A	vi-	1c	vi-	2.e	vi-	2a	mo-
.	.	.	.	.	.	1cc	.
.	.	.	.	4f	.	.	.
1G	-vam,	1d	.	2g	-vam,	.	.
.	.	.	.	2G	sed	2b	-ri-
=53	=53	=53	=53	=53	=53	=53	=53
1r	.	0c	-vam	1A	vi-	1cc	-ar
1C	sed	.	.	2G	.	2r	.
.	.	.	.	[2c	.	2c	sed
=54	=54	=54	=54	=54	=54	=54	=54
1D	vi-	1r	.	2c]	.	1f	vi-
.	.	.	.	2B	.	.	.
1C	-vam,	1c	et	2c	.	1e	-vam,
.	.	.	.	2G	-vam,	.	.
=55	=55	=55	=55	=55	=55	=55	=55
2r	.	1A	.	2r	.	2r	.
2C	sed	.	.	2c	sed	2e	sed
1D	vi-	1A	nar-	2.F	vi-	1f	vi-
.	.	.	.	4G	.	.	.
=56	=56	=56	=56	=56	=56	=56	=56
1C	-vam	1c	.	2A	.	1e	-vam
.	.	.	.	2G	.	.	.
2r	.	1c	-ra-	1F	-vam	2r	.
[2F	et	.	.	.	.	[2a	et
=57	=57	=57	=57	=57	=57	=57	=57
2F]	.	1c	-bo	2r	.	2a]	.
2F	nar-	.	.	1f	et	2a	nar-
2F	-ra-	1c	o-	.	.	2a	-ra-
2F	-bo	.	.	2f	nar-	2a	-bo
=58	=58	=58	=58	=58	=58	=58	=58
2G	o-	1B	.	2d	-ra-	2g	o-
2G	-pe-	.	.	2d	-bo	2g	-pe-
1C	-ra	1G	-pe-	2c	o-	1e	-ra
.	.	.	.	2c	-per-	.	.
=59	=59	=59	=59	=59	=59	=59	=59
2r	.	2A	-ra	2d	-a	2r	.
1C	Do-	1c	Do-	2.e	Do-	2.g	Do-
.	.	.	.	4f	.	4a	.
2GG	.	2B	.	2g	.	2b	.
=60	=60	=60	=60	=60	=60	=60	=60
1AA	.	1A	.	2f	.	1cc	.
.	.	.	.	1e	.	.	.
1AA	-mi-	1A	-mi-	.	.	1cc	-mi-
.	.	.	.	4d	.	.	.
.	.	.	.	4c	.	.	.
=61	=61	=61	=61	=61	=61	=61	=61
[0E	-ni.	[0G	-ni,	2.g	.	0b	-ni,
.	.	.	.	4f	.	.	.
.	.	.	.	4e	.	.	.
.	.	.	.	4d	.	.	.
.	.	.	.	[2e	.	.	.
=62	=62	=62	=62	=62	=62	=62	=62
0E_	.	0G]	.	2e]	.	1r	.
.	.	.	.	4d	.	.	.
.	.	.	.	4c	.	.	.
.	.	.	.	2B	.	1g	et
.	.	.	.	2G	-mi-	.	.
=63	=63	=63	=63	=63	=63	=63	=63
0E]	.	1r	.	1G	-ni,	1e	.
.	.	1G	et	2r	.	1e	nar-
.	.	.	.	[2B	et	.	.
=64	=64	=64	=64	=64	=64	=64	=64
0r	.	1E	.	2B]	.	1g	.
.	.	.	.	2B	nar-	.	.
.	.	1E	nar-	2e	-ra-	1g	-ra-
.	.	.	.	2e	-bo	.	.
=65	=65	=65	=65	=65	=65	=65	=65
0r	.	1G	.	4d	o-	1g	-bo
.	.	.	.	4c	.	.	.
.	.	.	.	4B	.	.	.
.	.	.	.	4A	.	.	.
.	.	1G	-ra-	2B	.	1g	o-
.	.	.	.	2B	-pe-	.	.
=66	=66	=66	=66	=66	=66	=66	=66
0r	.	1D	-bo	2A	-ra	1f	.
.	.	.	.	2d	Do-	.	.
.	.	2G	o-	4B	.	1d	-pe-
.	.	.	.	4c	.	.	.
.	.	2G	-pe-	4d	.	.	.
.	.	.	.	4B	.	.	.
=67	=67	=67	=67	=67	=67	=67	=67
0r	.	2C	-ra	2c	.	2e	-ra
.	.	1E	Do-	4G	.	1g	Do-
.	.	.	.	4A	.	.	.
.	.	.	.	4B	.	.	.
.	.	.	.	4G	.	.	.
.	.	2D	.	4A	.	2f	.
.	.	.	.	4B	.	.	.
=68	=68	=68	=68	=68	=68	=68	=68
0C	Non	2C	.	2c	.	1e	.
.	.	4c	.	2G	.	.	.
.	.	4B	.	.	.	.	.
.	.	4A	.	2.c	.	1e	-mi-
.	.	4G	.	.	.	.	.
.	.	[2G	.	.	.	.	.
.	.	.	.	4B	.	.	.
=69	=69	=69	=69	=69	=69	=69	=69
1D	.	2G]	.	2A	-mi-	1d	-ni.
.	.	2F	-mi-	4G	.	.	.
.	.	.	.	4F	.	.	.
1C	.	2G	-ni.	2E	-ni.	1r	.
.	.	2c	Non	2e	Non	.	.
=70	=70	=70	=70	=70	=70	=70	=70
1C	mo-	4c	mo-	4e	mo-	0r	.
.	.	4B	.	4d	.	.	.
.	.	4A	.	4c	.	.	.
.	.	4G	.	4B	.	.	.
2D	.	2F	.	2A	.	.	.
[2F	.	2F	-ri-	2A	-ri-	.	.
=71	=71	=71	=71	=71	=71	=71	=71
2F]	.	1c	-ar	2G	-ar,	1g	Non
2E	-ri-	.	.	2g	non	.	.
1F	-ar	2r	.	2.f	mo-	1a	.
.	.	2c	sed	.	.	.	.
.	.	.	.	4e	.	.	.
=72	=72	=72	=72	=72	=72	=72	=72
1G	.	2.B	vi-	4d	.	1g	.
.	.	.	.	4c	.	.	.
.	.	.	.	4B	.	.	.
.	.	4c	.	4A	.	.	.
1G	sed	4d	.	2B	.	1g	mo-
.	.	4c	.	.	.	.	.
.	.	4d	.	2B	-ri-	.	.
.	.	4e	.	.	.	.	.
=73	=73	=73	=73	=73	=73	=73	=73
1F	vi-	2.f	.	2A	-ar	2a	.
.	.	.	.	2a	sed	1cc	.
.	.	4e	.	.	.	.	.
1G	.	4d	.	1g	vi-	.	.
.	.	4c	.	.	.	.	.
.	.	2d	.	.	.	2b	-ri-
=74	=74	=74	=74	=74	=74	=74	=74
0F	-vam	1A	-vam,	1c	-vam	1cc	-ar
.	.	1c	sed	2r	.	1a	sed
.	.	.	.	[2f	et	.	.
=75	=75	=75	=75	=75	=75	=75	=75
1r	.	0c	vi-	2f]	.	1g	vi-
.	.	.	.	2e	nar-	.	.
1F	et	.	.	[1f	-ra-	1a	.
=76	=76	=76	=76	=76	=76	=76	=76
1D	.	0d	.	2f]	.	1a	-vam
.	.	.	.	2f	-bo	.	.
1D	nar-	.	.	2f	o-	2r	.
.	.	.	.	2f	-pe-	[2a	et
=77	=77	=77	=77	=77	=77	=77	=77
1F	.	1c	-vam	1f	-ra,	2a]	.
.	.	.	.	.	.	2a	nar-
1F	-ra-	2r	.	1r	.	2a	-ra-
.	.	[2c	et	.	.	2a	-bo
=78	=78	=78	=78	=78	=78	=78	=78
1F	-bo	2c]	.	1f	et	1.a	o-
.	.	2c	nar-	.	.	.	.
1F	o-	2A	-ra-	2f	nar-	.	.
.	.	2A	-bo	2c	-ra-	2a	-pe-
=79	=79	=79	=79	=79	=79	=79	=79
1E	.	2B	o-	2d	-bo	0g	-ra
.	.	2B	-pe-	1e	o-	.	.
1C	-pe-	1c	-ra	.	.	.	.
.	.	.	.	2e	-pe-	.	.
=80	=80	=80	=80	=80	=80	=80	=80
2D	-ra	2.f	Do-	2d	-ra	2r	.
1F	Do-	.	.	2c	.	1a	Do-
.	.	4e	.	.	.	.	.
.	.	4d	.	2A	.	.	.
.	.	4c	.	.	.	.	.
2E	.	[2c	.	2c	.	2g	.
=81	=81	=81	=81	=81	=81	=81	=81
1D	.	2c]	.	1d	Do-	1f	.
.	.	4B	.	.	.	.	.
.	.	4A	.	.	.	.	.
1D	-mi-	2B	.	1d	-mi-	1f	-mi-
.	.	2B	-mi-	.	.	.	.
=82	=82	=82	=82	=82	=82	=82	=82
[0C	-ni,	1c	-ni,	1G	-ni,	1e	-ni,
.	.	[1c	Do-	2r	.	2r	.
.	.	.	.	[2G	Do-	[2e	Do-
=83	=83	=83	=83	=83	=83	=83	=83
0C]	.	1c]	.	2G]	.	2e]	.
.	.	.	.	4F	.	4d	.
.	.	.	.	4E	.	4c	.
.	.	1c	-mi-	2G	.	2e	.
.	.	.	.	2A	-mi-	2e	-mi-
=84	=84	=84	=84	=84	=84	=84	=84
1r	.	[0Gl	-ni.	1B	-ni,	1d	-ni,
[1C	Do-	.	.	2r	.	2r	.
.	.	.	.	[2c	Do-	[2e	Do-
=85	=85	=85	=85	=85	=85	=85	=85
1C]	.	0G_	.	2c]	.	2e]	.
.	.	.	.	4B	.	4d	.
.	.	.	.	4A	.	4c	.
1C	-mi-	.	.	2G	.	2e	.
.	.	.	.	2c	-mi-	2e	-mi-
=86	=86	=86	=86	=86	=86	=86	=86
00GGl	-ni.	00G]	.	00Bl	-ni.	00dl	-ni.
*	*	*	*	*	*	*	*
==	==	==	==	==	==	==	==
*-	*-	*-	*-	*-	*-	*-	*-
!!!system-decoration: [*]
!!!RDF**kern: i = editorial accidental
!!!RDF**kern: l = terminal long
!!!PTL: <i> New Senfl Edition: Motets for Four Voices (N-V) </i>
!!!PPR: Hollitzer Verlag
!!!PC#: Denkmäler der Tonkunst in Österreich 163.2
!!!PDT: 2022
!!!PED: Scott Lee Edwards, Stefan Gasch, and Sonja Tröster
!!!YEC: Copyright 2022 Denkmäler der Tonkunst in Österreich
!!!YEM: CC-BY-NC 4.0 (https://creativecommons.org/licenses/by-nc/4.0/legalcode)
!!!EED: Benjamin Ory
!!!EEV: 2024/2/6
!!!verovio: header true
!!!header-left: @{PTL}\n@{PED}, eds.\n@{PC#} (@{PDT})&nbsp;\n
!!!header-right:
!!!header-center:
